X: 36413
T: Sean's
R: slide
M: 12/8
K: Aminor
|:A3 dAF|G2 E EFG|FEF DEF EDE EFG|
A3 dAF Gz (E E)FG|FED EFE D3 EFG:|
|:EDE C2 E FEF F2 A|BAB GAB ^cBc ABc|
d3 dAF G2 E EFG|FED EFE D3 D3:|
|:a2A g2A fed e3|fed def efe efg|
aAA gAA fAA eAA|fed efe d3 d3:|

